X:580
T:Paddy Canny's
R:jig
Z:Transcribed by Dave Marshall
M:6/8
K:D
|: D3 ~F3 | AFA d2c | ~B3 BAF | def edA |
D3 ~F3 | AFA d2c | ~B3 BAF | dAF ~E3 :|
|: dfa afa | bag fge | dfa afe | def ecA |
dfa afa | bag fge | dcB AFA | dAF ~E3 :|
